app/assets/images/icon-arrow-right.svg

<svg height="12" viewBox="0 0 7 12" width="7" xmlns="http://www.w3.org/2000/svg"><path d="m250.814339 343.466344-5.133414 5.340481c-.247579.257567-.648967.257567-.896519 0l-.598728-.622882c-.247156-.257127-.247632-.673856-.001056-.931588l4.068319-4.252369-4.068319-4.252341c-.246576-.257732-.2461-.674461.001056-.931588l.598728-.622882c.247579-.257567.648967-.257567.896519 0l5.133387 5.340481c.247579.25754.247579.675121.000027.932688z" fill="#ffc72c" transform="translate(-244 -337)"/></svg>

<?xml version="1.0" encoding="UTF-8"?>
<svg width="7px" height="12px" viewBox="0 0 7 12" version="1.1" xmlns="http://www.w3.org/2000/svg" xmlns:xlink="http://www.w3.org/1999/xlink">
    <!-- Generator: Sketch 54.1 (76490) - https://sketchapp.com -->
    <title>Path</title>
    <desc>Created with Sketch.</desc>
    <g id="Mobile-Final-Designs" stroke="none" stroke-width="1" fill="none" fill-rule="evenodd">
        <g id="1---Home" transform="translate(-257.000000, -696.000000)" fill="#FFC72C" fill-rule="nonzero">
            <g id="Group-3" transform="translate(13.000000, 359.000000)">
                <path d="M250.814339,343.466344 L245.680925,348.806825 C245.433346,349.064392 245.031958,349.064392 244.784406,348.806825 L244.185678,348.183943 C243.938522,347.926816 243.938046,347.510087 244.184622,347.252355 L248.252941,342.999986 L244.184622,338.747645 C243.938046,338.489913 243.938522,338.073184 244.185678,337.816057 L244.784406,337.193175 C245.031985,336.935608 245.433373,336.935608 245.680925,337.193175 L250.814312,342.533656 C251.061891,342.791196 251.061891,343.208777 250.814339,343.466344 Z" id="Path"></path>
            </g>
        </g>
    </g>
</svg>
